svg/doctor.svg

<svg xmlns="http://www.w3.org/2000/svg" viewBox="0 0 32 32" enable-background="new 0 0 32 32"><path d="M 8.4375 6 L 8.15625 6.46875 C 8.15625 6.46875 5 11.653086 5 20 L 5 21 L 6 21 L 11.09375 21 C 11.026845 21.324678 11 21.656303 11 22 C 11 24.749579 13.250421 27 16 27 C 18.749579 27 21 24.749579 21 22 C 21 21.656303 20.973155 21.324678 20.90625 21 L 26 21 L 27 21 L 27 20 C 27 15.388889 26.224366 12.010704 25.4375 9.78125 C 24.650634 7.5517957 23.8125 6.40625 23.8125 6.40625 L 23.5 6 L 23 6 L 9 6 L 8.4375 6 z M 9.65625 8 L 22.375 8 C 22.520667 8.2079407 22.949479 8.7318578 23.5625 10.46875 C 24.212538 12.310524 24.793853 15.201012 24.90625 19 L 20 19 C 19.085111 17.790574 17.624111 17 16 17 C 14.375889 17 12.914889 17.790574 12 19 L 7.09375 19 C 7.3220744 12.350427 9.3257876 8.5703107 9.65625 8 z M 15 10 L 15 12 L 13 12 L 13 14 L 15 14 L 15 16 L 17 16 L 17 14 L 19 14 L 19 12 L 17 12 L 17 10 L 15 10 z M 16 19 C 17.668699 19 19 20.331301 19 22 C 19 23.668699 17.668699 25 16 25 C 14.331301 25 13 23.668699 13 22 C 13 20.331301 14.331301 19 16 19 z M 16 21 C 15.447715 21 15 21.447715 15 22 C 15 22.552285 15.447715 23 16 23 C 16.552285 23 17 22.552285 17 22 C 17 21.447715 16.552285 21 16 21 z" color="#000" overflow="visible" enable-background="accumulate"/></svg>

<svg xmlns="http://www.w3.org/2000/svg" viewBox="0 0 32 32"><path d="M8.438 6l-.282.47S5 11.652 5 20v1h6.094c-.067.325-.094.656-.094 1 0 2.75 2.25 5 5 5s5-2.25 5-5c0-.344-.027-.675-.094-1H27v-1c0-4.61-.776-7.99-1.563-10.22-.786-2.228-1.625-3.374-1.625-3.374L23.5 6H8.437zm1.218 2h12.72c.145.208.573.732 1.186 2.47.65 1.84 1.232 4.73 1.344 8.53H20c-.915-1.21-2.376-2-4-2s-3.085.79-4 2H7.094c.228-6.65 2.232-10.43 2.562-11zM15 10v2h-2v2h2v2h2v-2h2v-2h-2v-2h-2zm1 9c1.67 0 3 1.33 3 3s-1.33 3-3 3-3-1.33-3-3 1.33-3 3-3zm0 2c-.552 0-1 .448-1 1s.448 1 1 1 1-.448 1-1-.448-1-1-1z"/></svg>
